X:34
T:"P Srpings gater"
Z:Bjrn Ek 2009-01-02
O:Vikbolandet, \~nstergtland
S:efter Pelle Fors
B:Ltar efter Pelle Fors
N:Nr 34 i Ltar efter Pelle Fors
R:Polska
M:3/4
L:1/8
K:G
%
BB/c/ BB AA|BB A2 G2|BB/B/ cc BB|dB A2 G2|
BB BB AA|BB BB AA|BB cc BB|dB A2 G2||
%
|:G>G BG BG|B>B dB dB|d>d gg dd|B>B A2 G2:|
%
W:Knner du grannas Brita  ja men san.
W:Knner du dotra hennes Ja, ja men san.
W:Gr p Srpings gater, sljer pannekaker
W:Iblann fr fyra re, iblann fr fem san.
W:Haderian rian, haderian rian
W:Iblann fr fyra re, iblann fr fem san.
